X:1
T:Title
%%score { ( 1 3 ) | ( 2 4 ) }
L:1/8
Q:1/4=100
M:4/4
K:Bb
V:1 treble nm="Grand Piano"
V:3 treble 
V:2 bass 
V:4 bass 
V:1
 [DF]2 [DF]>[EG] [DF]2 [B,D][CE] | [DF]2 [DB]2 [DB]3 [Ec] | [Fd][Ec][DB][Ec] [Fd]2 [FB]2 | %3
w: Wm.~J.~Kirkpatrick * * * * *|||
 c6[K:bass] z2 | [DF]2 [DF]>[EG] [DF]2 [B,D][CE] | [DF]2 [DB]2 [DB]3 [Ec] | %6
w: |||
 [Fd][Fc][FB][Gc] [Fd]2 [Ec]2 | [DB]6 z2 | [EG]2 [Ge]>[Ge] [Ge]2 .[B,GB]2 | %9
w: |||
 [Fd]2 [Fd]2 [Fd]3 [Fd] | [Fc]2 [Fc]2 [=Ec][EB][EA][EB] | c2 d2 e4 | [Fd]2 [DB]>[Ec] [Fd]2 [DF]2 | %13
w: ||||
 [EG]2 [GB]2 [GB]3 [^Fc] | dcBc d2 c2 |[M:3/4] [DB]6 |] %16
w: |||
V:2
 [B,,B,]2 [B,,B,]>[B,,B,] [B,,B,]2 [B,,F,]2 | [B,,B,]2 [B,,F,]2 [B,,F,]3 [B,,F,] | %2
 [B,,B,][B,,B,][B,,B,][B,,B,] [B,,B,]2 [D,B,]2 | [F,A,F]6 z2 | %4
 [B,,B,]2 [B,,B,]>[B,,B,] [B,,B,]2 [B,,F,]2 | [B,,B,]2 [B,,F,]2 [B,,F,]3 [B,,F,] | %6
 [B,,B,][C,B,][D,B,][E,B,] [F,B,]2 [F,A,]2 | [B,,B,]6 z2 | %8
 [E,B,]2 [E,B,]>[E,B,] [E,B,]2 z[K:treble] c | [B,,B,]2 [B,,B,]2 [B,,B,]3 [B,,B,] | %10
 [F,A,]2 [F,A,]2 [C,G,][C,G,][C,C][C,B,] | [A,F]2 [B,F]2 [CA]4 | %12
 [B,,B,]2 [B,,B,]>[B,,B,] [B,,B,]2 [B,,B,]2 | [E,B,]2 [E,B,]2 [E,B,]3 [E,B,] | %14
 [F,B,F][F,B,E][F,B,D][F,B,E] [F,B,F]2 [F,A,E]2 |[M:3/4] [B,,F,B,]6 |] %16
V:3
 x8 | x8 | x8 | z4 z[K:bass] E,D,C, | x8 | x8 | x8 | x8 | x8 | x8 | x8 | x8 | x8 | x8 | x8 | %15
[M:3/4] x6 |] %16
V:4
 x8 | x8 | x8 | x8 | x8 | x8 | x8 | x8 | z4 z2 E,2[K:treble] | x8 | x8 | F,8 | x8 | x8 | x8 | %15
[M:3/4] x6 |] %16

